X:55
M:6/4
L:1/4
Q:3/4=100
K:G
d | B>cdedc | BGdBed | gdeB2c | dGdefg | feda3 |
a3a3 | agfefd | ^cAaefd^cAdee2 | d(d2d2) ||
d | ABcB^c^d | efg^dBb | fge^dBb | fge^def | gf2(e3 | e3)edc |

